!!!OTL: Schloss in Oesterreich Es stand ein Schloss in Oest'reichs Landen
!!!ARE: Europa, Mitteleuropa, Deutschland (BRD), Rheinprovinz
!!!YOR: 1, S. 274
!!    1892 gedruckt in Neuwied
!!!SCT: Q0024O
!!!YEM: Copyright 1995, estate of Helmut Schaffrath.
**kern
*ICvox
*Ivox
*M3/4
*k[f#c#]
*D:
{8d
=1
8d
16f#
16a
4a
8g
8e
=2
8.d
16f#
4f#
8e}
{8d
=3
8d
16f#
16a
4a
8g
8e
=4
8g
8a
4f#
8r}
{8a
=5
8a
16cc#
16ee
4ee
8cc#
8a
=6
8b
8cc#
4dd}
{4dd
=7
8b
8b
4a
4f#
=8
8g
8a
4f#
8r}
==
!!!AGN: Ballade, Gefangenschaft, Hinrichtung, Tod, Vergeltung
!! Vgl. Q0024L und M
!!!ONB: ESAC (Essen Associative Code) Database: BALLADE
!!!AMT: simple triple
!!!AIN: vox
!!!EED: Helmut Schaffrath
!!!EEV: 1.0
*-
